X:1270
T:Skjerkholtrilen
O:Norway
R:Reel 
N:I'm not actually quite sure where to put the barlines in the 1st part.
D:\AA{}non Egeland \& Per Midstigen - I heitaste sl\aa{}tten (Heilo HCD7071)
L:1/8
M:4/4
%%ID:00000ca2
Z:Richard Robinson 
F: http://www.leeds.ac.uk/music/Info/RRTuneBk/gettune/00000ca2.abc
K:A
A3B | \
cBA=G FDFA | EGBd cAce | d2fa gfed | ceA2 A2AB | \
cBA=G FDFA | EGBd cAce | d2fa gece |1 d2 d2 d4 :|2 d2d2d2 |:
(3efg |\
a2ga fdfa | g2e2 e2 fg | a2ga fdfa | g2e2 A2ce |\
a2ga fdfa | gfed cABc | \
dBA=G FDFA | EGBd cAce | d2fa gece |1 d2 d2 d2 :|2 d2 d2 d4 |]
